X:467
%%etbk:tnset id:186,pos:1,rep:3,ant:
%%etbk:pldat 2016-06-04T15:15,2016-06-01T16:32,2016-05-31T16:50,2016-05-19T19:05,2016-05-18T17:01,2016-05-16T15:00,2016-05-13T16:32,2016-05-11T16:26,2016-05-10T18:37,2016-03-02T16:28,2016-03-01T17:23,2016-02-29T18:52,2016-02-27T13:47,2016-02-23T16:26,2015-11-20T16:52,2015-11-18T16:34,2015-11-17T16:39,2015-11-15T14:45,2015-11-11T15:54,2015-11-09T17:54,2015-09-10T16:11,2015-09-09T16:26,2015-09-08T18:47,2015-09-03T16:11,2015-09-02T16:11,2015-09-01T16:11,2015-08-31T18:34,2015-08-30T14:29,2015-08-26T15:38,2015-08-06T17:19,2015-08-05T15:57,2015-08-04T16:19,2015-08-03T18:05,2015-08-01T15:44,2015-07-30T17:45,2015-07-22T15:58,2015-06-26T17:03,2015-06-18T17:57,2015-06-16T16:05,2015-05-07T18:03,2015-04-16T18:56,2015-04-15T16:20,2015-04-13T18:39,2015-04-12T11:06,2015-04-11T14:22,2015-03-19T18:47,2015-03-18T17:08,2015-03-16T19:00,2015-03-15T14:41,2015-03-10T17:44,2015-02-22T15:24,2015-02-21T16:41,2015-02-18T15:54,2015-02-16T18:26,2015-02-11T15:18,2015-01-13T16:15,2015-01-10T14:35,2015-01-07T16:12,2015-01-05T19:01,2014-10-16T18:32,2014-10-14T17:57,2014-10-10T15:21,2014-09-13T12:58,2014-08-14T18:22,2014-08-13T19:24,2014-08-12T18:17,2014-08-11T18:30,2014-08-10T13:10,2014-08-06T18:53,2014-08-03T16:43,2014-07-29T18:31,2014-07-29T18:26,2014-07-22T18:35,2014-07-14T17:04,2014-07-04T11:01,2014-07-02T16:44,2014-06-20T15:28,2014-06-19T18:19,2014-06-17T18:14,2014-06-12T18:36,2014-06-09T13:59,2014-06-03T16:36,2014-05-28T09:49,2014-05-22T18:33,2014-04-23T16:57,2014-04-22T19:39,2014-04-21T15:33,2014-04-18T11:25,2014-04-16T08:54,2014-04-06T10:08,2014-01-30T17:38,2014-01-29T15:23,2014-01-28T17:46,2014-01-27T18:39,2014-01-26T14:46,2014-01-19T14:27,2014-01-18T15:08,2014-01-16T18:08,2014-01-14T18:50,2014-01-12T13:45,2014-01-08T16:49,2014-01-07T16:02,2014-01-02T11:03,2013-12-28T13:59,2013-12-22T17:01
T:Isle of Hope
H: Created 2013-02-20 /  Modified 2014-01-15
M:4/4
L:1/4
R: song
K: Dmaj
|"D"d4|"A"c4|"bm"B4|A4|
"G"G4|"D"F4|"A"E4|A4|
F/G/|:"D"A2AA|"A"AGFE|"bm"EDEF|F3F|
"G"G3G|"D"GFED|"A"DCDE|C4:|
D/C/|:"G"B,3B,/,D/|"A"E3D/E/|"D"GFEF|
"bm"D3E/F/|1"G"G>FGF|D3B,|"A"A,4:|2"G"GFED|"A"DCF>E|
"D"D4|D4|D4|D4


